X: 314
%
U:~=!turn!
T: Lady Madelina Sinclair's Birthday
C:
O:Scotland
B:Keith Norman MacDonald : "The Skye collection of the best reels & strathspeys extant" : 1887
Z:Ralph Palmer
R:Reel
M:C|
L:1/8
K:Bb
d | TB2 (FB) DBFB | TB2 (d/c/B) (Ac)cd | TB2 (FB) DBFB | (A/B/c) ce (dB)~B :|
d | B/B/B (dB) fBdB | B/B/B (dB) (Ac)cd | B/B/B (dB) fBdB | (A/B/c) (ce) dBBd |
B/B/B (dB) fBdB | B/B/B (dB) (Ac)cd | BBcc ddee | ffbf dB~B |]


